X:1
T:Title
%%score { 1 | ( 2 3 ) }
L:1/8
Q:1/4=100
M:4/4
K:Bb
V:1 treble nm="Grand Piano"
V:2 bass 
V:3 bass 
V:1
 F2 (3FGA B4 | c2 e2 [Fd]>[CFc] [DFB]2 | [FAc]2 (3ABc d2 (3Bcd | [Fce]2 (3[FBd][FBd][FBd] [FAc]4 | %4
w: James~McGranahan * * * *||||
 [CAc]2 (3[CGB][CGB][CGB] [CFA]2 [CAc]2 | [C=EG]2 [CGB]2 [CFA]>[B,CG] [A,CF]2 | %6
w: ||
 [Ff]2 [Ge]2 d2 (3ccc |[M:3/4] [DB]6 |[M:1/4] [DB]2 |[M:4/4] [EB]2 [GB]2 [_Ac]2 [GB]2 | %10
w: ||||
 [DGB]4 [DF_A]2 [FA]2 | [_Ad]3 [Ad] [DAc]2 [DAB]2 | [EGB]6 B2 | B2 B2 [=Ec]2 [EG]2 | %14
w: ||||
 [GB]2 [F_A]4 [Ac]2 | [Af]3 [Ae] [FAd]2 .[EAc]2 | [DFB]6 [B,DB]2 | [Fd]2 [Fd]2 [Be]2 [_Af]2 | %18
w: ||||
 [Ge]4 [GB]2 [EG]2 | [E_A]2 [EA]2 B2 B2 | c6 [_Ad]2 | [Ge]3 [Ge] [Bd]2 [_Ac]2 | %22
w: ||||
 [_Ac]2 [GB]4 [EG]2 | [EB]3 [EB] [D_A]2 [DF]2 | E6 z2 | F2 (3FGA B4 | c2 e2 [Fd]>[CFc] [DFB]2 | %27
w: |||||
 [FAc]2 (3ABc d2 (3Bcd | [Fce]2 (3[FBd][FBd][FBd] [FAc]4 | [CAc]2 (3[CGB][CGB][CGB] [CFA]2 [CAc]2 | %30
w: |||
 [C=EG]2 [CGB]2 [CFA]>[B,CG] [A,CF]2 | [Ff]2 [Ge]2 d2 (3ccc |[M:7/4] [DB]6 z2 z2 z4 |] %33
w: |||
V:2
 F,2 (3F,G,A, B,4 | [F,A,F]2 [F,CF]2 [B,,B,]>B,, B,,2 | F,2[K:treble] (3FGA [B,FB]2 (3GAB | %3
 A,2 (3B,B,B, F,4 | F,2 (3=E,E,E, F,2 F,2 | C,2 C,2 F,>F, F,E, | %6
 [D,B,]2 [E,B,]2 [F,B,F]2 (3[F,A,E][F,A,E][F,A,E] |[M:3/4] [B,,B,]6 |[M:1/4] [B,,_A,]2 | %9
[M:4/4] [E,G,]2 [E,B,]2 [E,E]2 [E,E]2 | B,,4 B,,2 [B,,B,]2 | [B,,B,]3 [B,,B,] B,,2 B,,2 | %12
 E,6 [E,G,E]2 | [E,G,E]2 [E,G,E]2 [C,G,]2 [C,C]2 | [F,C]2 [F,C]4 [F,C]2 | [F,C]3 [F,C] F,2 z F | %16
 B,,6 B,,2 | [_A,B,]2 [A,B,]2 [G,B,]2 [D,B,]2 | [E,B,]4 [E,B,]2 [_D,B,]2 | %19
 [C,_A,]2 [C,A,]2 [E,G,E]2 [E,G,E]2 | [_A,E]6 [F,B,]2 | [E,B,]3 [E,B,] [E,E]2 [E,E]2 | %22
 [E,E]2 [E,E]4 [E,B,]2 | [B,,G,]3 [B,,G,] [B,,F,]2 [B,,_A,]2 | [E,G,]6 z2 | F,2 (3F,G,A, B,4 | %26
 [F,A,F]2 [F,CF]2 [B,,B,]>B,, B,,2 | F,2[K:treble] (3FGA [B,FB]2 (3GAB | A,2 (3B,B,B, F,4 | %29
 F,2 (3=E,E,E, F,2 F,2 | C,2 C,2 F,>F, F,E, | [D,B,]2 [E,B,]2 [F,B,F]2 (3[F,A,E][F,A,E][F,A,E] | %32
[M:7/4] [B,,B,]6 z2 z2 z4 |] %33
V:3
 x8 | x8 | x2[K:treble] x6 | x8 | x8 | x8 | x8 |[M:3/4] x6 |[M:1/4] x2 |[M:4/4] x8 | x8 | x8 | x8 | %13
 x8 | x8 | z4 z2 F,2 | x8 | x8 | x8 | x8 | x8 | x8 | x8 | x8 | x8 | x8 | x8 | x2[K:treble] x6 | %28
 x8 | x8 | x8 | x8 |[M:7/4] x14 |] %33

